X:1
T: The House of Cairnfield
C:William Marshall
R:Strathspey
Q: 128
K:Eb
M:4/4
L:1/16
|:E3G B2e2 edcd B4|B3d f2a2 g2fg e4|g3a b2g2 f2e2 d2c2|B2A2 G2F2 E4E4|
E3G B2e2 edcd B4|B3d f2a2 g2fg e4|g3a b2g2 f2e2 d2c2|B2A2 G2F2 E4E4|
g2e2 e2fg a2c2 f4|d3e fedc B2d2 f2a2|g2e2 a2g2 f2e2 d2c2|B2A2 G2F2 E4E4|
g2e2 e2fg a2c2 f4|d3e fedc B2d2 f2a2|g3a b2g2 f2e2 d2c2|B2A2 G2F2 E4E4:|
